report_00007_2020-12-11T15:55:29.892Z/network-server-latency/comparison/sorted/5_vs_6.svg

<svg width="640" height="500" xmlns="http://www.w3.org/2000/svg" xmlns:xlink="http://www.w3.org/1999/xlink"><path fill="#fff" d="M0 0h640v500H0z"/><defs><path id="d" stroke-width=".222" stroke="currentColor" d="M-1-1h2v2h-2z"/><path id="b" stroke-width=".222" stroke="currentColor" d="M0-1.33l-1.33 2h2.66z"/><path id="f" stroke-width=".222" stroke="currentColor" d="M0 1.33L1.265.411.782-1.067l-1.564-.009-.483 1.487z"/><use xlink:href="#b" id="c" stroke="currentColor" transform="rotate(180)"/><use xlink:href="#d" id="e" stroke="currentColor" transform="rotate(45)"/><circle id="a" stroke-width=".222" stroke="currentColor" cx="0" cy="0" r="1"/></defs><g fill="none" color="#000" stroke="currentColor"><path stroke="#000" d="M53.9 426.9h9m552.1 0h-9"/><text transform="translate(45.6 430.8)" stroke="none" fill="#000" font-family="Arial" font-size="12" text-anchor="end"><tspan>3</tspan></text></g><g fill="none" color="#000" stroke="currentColor"><path stroke="#000" d="M53.9 384.1h9m552.1 0h-9"/><text transform="translate(45.6 388)" stroke="none" fill="#000" font-family="Arial" font-size="12" text-anchor="end"><tspan>3.5</tspan></text></g><g fill="none" color="#000" stroke="currentColor"><path stroke="#000" d="M53.9 341.4h9m552.1 0h-9"/><text transform="translate(45.6 345.3)" stroke="none" fill="#000" font-family="Arial" font-size="12" text-anchor="end"><tspan>4</tspan></text></g><g fill="none" color="#000" stroke="currentColor"><path stroke="#000" d="M53.9 298.6h9m552.1 0h-9"/><text transform="translate(45.6 302.5)" stroke="none" fill="#000" font-family="Arial" font-size="12" text-anchor="end"><tspan>4.5</tspan></text></g><g fill="none" color="#000" stroke="currentColor"><path stroke="#000" d="M53.9 255.9h9m552.1 0h-9"/><text transform="translate(45.6 259.8)" stroke="none" fill="#000" font-family="Arial" font-size="12" text-anchor="end"><tspan>5</tspan></text></g><g fill="none" color="#000" stroke="currentColor"><path stroke="#000" d="M53.9 213.1h9m552.1 0h-9"/><text transform="translate(45.6 217)" stroke="none" fill="#000" font-family="Arial" font-size="12" text-anchor="end"><tspan>5.5</tspan></text></g><g fill="none" color="#000" stroke="currentColor"><path stroke="#000" d="M53.9 170.4h9m552.1 0h-9"/><text transform="translate(45.6 174.3)" stroke="none" fill="#000" font-family="Arial" font-size="12" text-anchor="end"><tspan>6</tspan></text></g><g fill="none" color="#000" stroke="currentColor"><path stroke="#000" d="M53.9 127.6h9m552.1 0h-9"/><text transform="translate(45.6 131.5)" stroke="none" fill="#000" font-family="Arial" font-size="12" text-anchor="end"><tspan>6.5</tspan></text></g><g fill="none" color="#000" stroke="currentColor"><path stroke="#000" d="M53.9 84.9h9m552.1 0h-9"/><text transform="translate(45.6 88.8)" stroke="none" fill="#000" font-family="Arial" font-size="12" text-anchor="end"><tspan>7</tspan></text></g><g fill="none" color="#000" stroke="currentColor"><path stroke="#000" d="M53.9 42.1h9m552.1 0h-9"/><text transform="translate(45.6 46)" stroke="none" fill="#000" font-family="Arial" font-size="12" text-anchor="end"><tspan>7.5</tspan></text></g><g fill="none" color="#000" stroke="currentColor"><path stroke="#000" d="M53.9 428v-9m0-400.9v9"/><text transform="translate(53.9 449.9)" stroke="none" fill="#000" font-family="Arial" font-size="12" text-anchor="middle"><tspan>0</tspan></text></g><g fill="none" color="#000" stroke="currentColor"><path stroke="#000" d="M110.6 428v-9m0-400.9v9"/><text transform="translate(110.6 449.9)" stroke="none" fill="#000" font-family="Arial" font-size="12" text-anchor="middle"><tspan>10</tspan></text></g><g fill="none" color="#000" stroke="currentColor"><path stroke="#000" d="M167.3 428v-9m0-400.9v9"/><text transform="translate(167.3 449.9)" stroke="none" fill="#000" font-family="Arial" font-size="12" text-anchor="middle"><tspan>20</tspan></text></g><g fill="none" color="#000" stroke="currentColor"><path stroke="#000" d="M223.9 428v-9m0-400.9v9"/><text transform="translate(223.9 449.9)" stroke="none" fill="#000" font-family="Arial" font-size="12" text-anchor="middle"><tspan>30</tspan></text></g><g fill="none" color="#000" stroke="currentColor"><path stroke="#000" d="M280.6 428v-9m0-400.9v9"/><text transform="translate(280.6 449.9)" stroke="none" fill="#000" font-family="Arial" font-size="12" text-anchor="middle"><tspan>40</tspan></text></g><g fill="none" color="#000" stroke="currentColor"><path stroke="#000" d="M337.3 428v-9m0-400.9v9"/><text transform="translate(337.3 449.9)" stroke="none" fill="#000" font-family="Arial" font-size="12" text-anchor="middle"><tspan>50</tspan></text></g><g fill="none" color="#000" stroke="currentColor"><path stroke="#000" d="M394 428v-9m0-400.9v9"/><text transform="translate(394 449.9)" stroke="none" fill="#000" font-family="Arial" font-size="12" text-anchor="middle"><tspan>60</tspan></text></g><g fill="none" color="#000" stroke="currentColor"><path stroke="#000" d="M450.6 428v-9m0-400.9v9"/><text transform="translate(450.6 449.9)" stroke="none" fill="#000" font-family="Arial" font-size="12" text-anchor="middle"><tspan>70</tspan></text></g><g fill="none" color="#000" stroke="currentColor"><path stroke="#000" d="M507.3 428v-9m0-400.9v9"/><text transform="translate(507.3 449.9)" stroke="none" fill="#000" font-family="Arial" font-size="12" text-anchor="middle"><tspan>80</tspan></text></g><g fill="none" color="#000" stroke="currentColor"><path stroke="#000" d="M564 428v-9m0-400.9v9"/><text transform="translate(564 449.9)" stroke="none" fill="#000" font-family="Arial" font-size="12" text-anchor="middle"><tspan>90</tspan></text></g><path stroke="#000" d="M53.9 18.1V428H615V18.1H53.9z" fill="none" color="#000"/><text transform="translate(433.7 467.9)" stroke="none" fill="#000" font-family="Arial" font-size="12" text-anchor="end" color="#000"><tspan>pages+cached+noexternal</tspan></text><path stroke="#9400D3" d="M442 464h42.2M53.9 287.4l5.7-6.7 5.6-7.1 5.7-4.2 5.7-8 5.6-.1 5.7-2 5.7-3.6 5.6-2.3 5.7-4.7 5.7-1 5.6-1.6 5.7-1.1 5.7-4 5.6-3.1 5.7-.8 5.7-1.4 5.7-1 5.6-.6 5.7-2.6 5.7-5.4 5.6-3 5.7-.3 5.7-.6 5.6-.8 5.7-.1 5.7-.4 5.6-.2 5.7-.4 5.7-1.3 5.6-1.8 5.7-8.7 5.7-.4 5.6-.6 5.7-2.6h5.7l5.6-1 5.7-1.5 5.7-.9 5.6-2.4 5.7-.8 5.7-.7 5.6-.2 5.7-.5 5.7-.9 5.6-.2h5.7l5.7-.8 5.6-2.2 5.7-.9 5.7-1.9 5.7-1.2 5.6-1.2 5.7-3.1 5.7-.9 5.6-.7 5.7-1.3 5.7-.4 5.6-.9 5.7-3.3 5.7-.1 5.6-5.4 5.7-1.8 5.7-1.9 5.6-1.8 5.7-4.2 5.7-1.2 5.6-2.8h5.7l5.7-.6 5.6-.1 5.7-1.1 5.7-3.4 5.6-2.1 5.7-1.3 5.7-.1 5.6-1.2 5.7-2.1 5.7-4.9 5.6-1 5.7-3.1 5.7-1.4 5.6-3.4 5.7-.4 5.7-.4 5.7-.4 5.6-3.1 5.7-.6 5.7-1.5 5.6-3.6 5.7-3.7 5.7-.3 5.6-.9 5.7-2 5.7-8.3 5.6-.6 5.7-18.5 5.7-39.4 5.6-2.2L615 26" fill="none" color="#000"/><text transform="translate(433.7 485.9)" stroke="none" fill="#000" font-family="Arial" font-size="12" text-anchor="end" color="#000"><tspan>pages+cached+noexternal+nofonts</tspan></text><path stroke="#009E73" d="M442 482h42.2M53.9 420.1l5.7-34.6 5.6-1.9 5.7-.7 5.7-1.8 5.6-8.7 5.7-1.4 5.7-1.1 5.6-.3 5.7-1.1 5.7-2.3 5.6-.8 5.7-.4 5.7-1.6 5.6-1.3 5.7-3.2 5.7-.5 5.7-4.7 5.6-1 5.7-.7 5.7-.4 5.6-1.6 5.7-.2 5.7-.7 5.6-.3 5.7-.1 5.7-.6 5.6-3.8 5.7-.2 5.7-.1 5.6-.6h5.7l5.7-1 5.6-.9 5.7-.5 5.7-2.3 5.6-.8 5.7-.4h5.7l5.6-.2 5.7-.6 5.7-.3 5.6-.6 5.7-.1 5.7-1.7 5.6-.2 5.7-.5 5.7-1 5.6-.1 5.7-.9 5.7-.4 5.7-.9 5.6-.4 5.7-1.1 5.7-.3h5.6l5.7-.7 5.7-.6 5.6-2.1 5.7-1 5.7-.7 5.6-1.1 5.7-3 5.7-.9 5.6-1.3 5.7-.8 5.7-.1 5.6-1.6 5.7-.3 5.7-1.2 5.6-.9 5.7-1 5.7-.2 5.6-1.7 5.7-.3h5.7l5.6-.8 5.7-.3 5.7-.3 5.6-1.4 5.7-.1 5.7-.4 5.6-1 5.7-.5 5.7-2.6 5.7-.2 5.6-.4 5.7-4.1 5.7-4.7 5.6-.1 5.7-3.3h5.7l5.6-.6 5.7-3 5.7-5.2 5.6-5.9 5.7-7.4 5.7-2.8 5.6-13.9 5.7-4.4" fill="none" color="#000"/><g fill="none" color="#000" stroke="currentColor"><path stroke="#000" d="M53.9 18.1V428H615V18.1H53.9z"/></g></svg>

<?xml version="1.0" encoding="utf-8"  standalone="no"?>
<svg 
 width="640" height="500"
 viewBox="0 0 640 500"
 xmlns="http://www.w3.org/2000/svg"
 xmlns:xlink="http://www.w3.org/1999/xlink"
>

<title>Gnuplot</title>
<desc>Produced by GNUPLOT 5.4 patchlevel 0 </desc>

<g id="gnuplot_canvas">

<rect x="0" y="0" width="640" height="500" fill="#ffffff"/>
<defs>

	<circle id='gpDot' r='0.5' stroke-width='0.5' stroke='currentColor'/>
	<path id='gpPt0' stroke-width='0.222' stroke='currentColor' d='M-1,0 h2 M0,-1 v2'/>
	<path id='gpPt1' stroke-width='0.222' stroke='currentColor' d='M-1,-1 L1,1 M1,-1 L-1,1'/>
	<path id='gpPt2' stroke-width='0.222' stroke='currentColor' d='M-1,0 L1,0 M0,-1 L0,1 M-1,-1 L1,1 M-1,1 L1,-1'/>
	<rect id='gpPt3' stroke-width='0.222' stroke='currentColor' x='-1' y='-1' width='2' height='2'/>
	<rect id='gpPt4' stroke-width='0.222' stroke='currentColor' fill='currentColor' x='-1' y='-1' width='2' height='2'/>
	<circle id='gpPt5' stroke-width='0.222' stroke='currentColor' cx='0' cy='0' r='1'/>
	<use xlink:href='#gpPt5' id='gpPt6' fill='currentColor' stroke='none'/>
	<path id='gpPt7' stroke-width='0.222' stroke='currentColor' d='M0,-1.33 L-1.33,0.67 L1.33,0.67 z'/>
	<use xlink:href='#gpPt7' id='gpPt8' fill='currentColor' stroke='none'/>
	<use xlink:href='#gpPt7' id='gpPt9' stroke='currentColor' transform='rotate(180)'/>
	<use xlink:href='#gpPt9' id='gpPt10' fill='currentColor' stroke='none'/>
	<use xlink:href='#gpPt3' id='gpPt11' stroke='currentColor' transform='rotate(45)'/>
	<use xlink:href='#gpPt11' id='gpPt12' fill='currentColor' stroke='none'/>
	<path id='gpPt13' stroke-width='0.222' stroke='currentColor' d='M0,1.330 L1.265,0.411 L0.782,-1.067 L-0.782,-1.076 L-1.265,0.411 z'/>
	<use xlink:href='#gpPt13' id='gpPt14' fill='currentColor' stroke='none'/>
	<filter id='textbox' filterUnits='objectBoundingBox' x='0' y='0' height='1' width='1'>
	  <feFlood flood-color='#FFFFFF' flood-opacity='1' result='bgnd'/>
	  <feComposite in='SourceGraphic' in2='bgnd' operator='atop'/>
	</filter>
	<filter id='greybox' filterUnits='objectBoundingBox' x='0' y='0' height='1' width='1'>
	  <feFlood flood-color='lightgrey' flood-opacity='1' result='grey'/>
	  <feComposite in='SourceGraphic' in2='grey' operator='atop'/>
	</filter>
</defs>
<g fill="none" color="#FFFFFF" stroke="black" stroke-width="1.00" stroke-linecap="butt" stroke-linejoin="miter">
</g>
<g fill="none" color="black" stroke="currentColor" stroke-width="1.00" stroke-linecap="butt" stroke-linejoin="miter">
	<path stroke='black'  d='M53.9,426.9 L62.9,426.9 M615.0,426.9 L606.0,426.9  '/>	<g transform="translate(45.6,430.8)" stroke="none" fill="black" font-family="Arial" font-size="12.00"  text-anchor="end">
		<text><tspan font-family="Arial" > 3</tspan></text>
	</g>
</g>
<g fill="none" color="black" stroke="currentColor" stroke-width="1.00" stroke-linecap="butt" stroke-linejoin="miter">
	<path stroke='black'  d='M53.9,384.1 L62.9,384.1 M615.0,384.1 L606.0,384.1  '/>	<g transform="translate(45.6,388.0)" stroke="none" fill="black" font-family="Arial" font-size="12.00"  text-anchor="end">
		<text><tspan font-family="Arial" > 3.5</tspan></text>
	</g>
</g>
<g fill="none" color="black" stroke="currentColor" stroke-width="1.00" stroke-linecap="butt" stroke-linejoin="miter">
	<path stroke='black'  d='M53.9,341.4 L62.9,341.4 M615.0,341.4 L606.0,341.4  '/>	<g transform="translate(45.6,345.3)" stroke="none" fill="black" font-family="Arial" font-size="12.00"  text-anchor="end">
		<text><tspan font-family="Arial" > 4</tspan></text>
	</g>
</g>
<g fill="none" color="black" stroke="currentColor" stroke-width="1.00" stroke-linecap="butt" stroke-linejoin="miter">
	<path stroke='black'  d='M53.9,298.6 L62.9,298.6 M615.0,298.6 L606.0,298.6  '/>	<g transform="translate(45.6,302.5)" stroke="none" fill="black" font-family="Arial" font-size="12.00"  text-anchor="end">
		<text><tspan font-family="Arial" > 4.5</tspan></text>
	</g>
</g>
<g fill="none" color="black" stroke="currentColor" stroke-width="1.00" stroke-linecap="butt" stroke-linejoin="miter">
	<path stroke='black'  d='M53.9,255.9 L62.9,255.9 M615.0,255.9 L606.0,255.9  '/>	<g transform="translate(45.6,259.8)" stroke="none" fill="black" font-family="Arial" font-size="12.00"  text-anchor="end">
		<text><tspan font-family="Arial" > 5</tspan></text>
	</g>
</g>
<g fill="none" color="black" stroke="currentColor" stroke-width="1.00" stroke-linecap="butt" stroke-linejoin="miter">
	<path stroke='black'  d='M53.9,213.1 L62.9,213.1 M615.0,213.1 L606.0,213.1  '/>	<g transform="translate(45.6,217.0)" stroke="none" fill="black" font-family="Arial" font-size="12.00"  text-anchor="end">
		<text><tspan font-family="Arial" > 5.5</tspan></text>
	</g>
</g>
<g fill="none" color="black" stroke="currentColor" stroke-width="1.00" stroke-linecap="butt" stroke-linejoin="miter">
	<path stroke='black'  d='M53.9,170.4 L62.9,170.4 M615.0,170.4 L606.0,170.4  '/>	<g transform="translate(45.6,174.3)" stroke="none" fill="black" font-family="Arial" font-size="12.00"  text-anchor="end">
		<text><tspan font-family="Arial" > 6</tspan></text>
	</g>
</g>
<g fill="none" color="black" stroke="currentColor" stroke-width="1.00" stroke-linecap="butt" stroke-linejoin="miter">
	<path stroke='black'  d='M53.9,127.6 L62.9,127.6 M615.0,127.6 L606.0,127.6  '/>	<g transform="translate(45.6,131.5)" stroke="none" fill="black" font-family="Arial" font-size="12.00"  text-anchor="end">
		<text><tspan font-family="Arial" > 6.5</tspan></text>
	</g>
</g>
<g fill="none" color="black" stroke="currentColor" stroke-width="1.00" stroke-linecap="butt" stroke-linejoin="miter">
	<path stroke='black'  d='M53.9,84.9 L62.9,84.9 M615.0,84.9 L606.0,84.9  '/>	<g transform="translate(45.6,88.8)" stroke="none" fill="black" font-family="Arial" font-size="12.00"  text-anchor="end">
		<text><tspan font-family="Arial" > 7</tspan></text>
	</g>
</g>
<g fill="none" color="black" stroke="currentColor" stroke-width="1.00" stroke-linecap="butt" stroke-linejoin="miter">
	<path stroke='black'  d='M53.9,42.1 L62.9,42.1 M615.0,42.1 L606.0,42.1  '/>	<g transform="translate(45.6,46.0)" stroke="none" fill="black" font-family="Arial" font-size="12.00"  text-anchor="end">
		<text><tspan font-family="Arial" > 7.5</tspan></text>
	</g>
</g>
<g fill="none" color="black" stroke="currentColor" stroke-width="1.00" stroke-linecap="butt" stroke-linejoin="miter">
	<path stroke='black'  d='M53.9,428.0 L53.9,419.0 M53.9,18.1 L53.9,27.1  '/>	<g transform="translate(53.9,449.9)" stroke="none" fill="black" font-family="Arial" font-size="12.00"  text-anchor="middle">
		<text><tspan font-family="Arial" > 0</tspan></text>
	</g>
</g>
<g fill="none" color="black" stroke="currentColor" stroke-width="1.00" stroke-linecap="butt" stroke-linejoin="miter">
	<path stroke='black'  d='M110.6,428.0 L110.6,419.0 M110.6,18.1 L110.6,27.1  '/>	<g transform="translate(110.6,449.9)" stroke="none" fill="black" font-family="Arial" font-size="12.00"  text-anchor="middle">
		<text><tspan font-family="Arial" > 10</tspan></text>
	</g>
</g>
<g fill="none" color="black" stroke="currentColor" stroke-width="1.00" stroke-linecap="butt" stroke-linejoin="miter">
	<path stroke='black'  d='M167.3,428.0 L167.3,419.0 M167.3,18.1 L167.3,27.1  '/>	<g transform="translate(167.3,449.9)" stroke="none" fill="black" font-family="Arial" font-size="12.00"  text-anchor="middle">
		<text><tspan font-family="Arial" > 20</tspan></text>
	</g>
</g>
<g fill="none" color="black" stroke="currentColor" stroke-width="1.00" stroke-linecap="butt" stroke-linejoin="miter">
	<path stroke='black'  d='M223.9,428.0 L223.9,419.0 M223.9,18.1 L223.9,27.1  '/>	<g transform="translate(223.9,449.9)" stroke="none" fill="black" font-family="Arial" font-size="12.00"  text-anchor="middle">
		<text><tspan font-family="Arial" > 30</tspan></text>
	</g>
</g>
<g fill="none" color="black" stroke="currentColor" stroke-width="1.00" stroke-linecap="butt" stroke-linejoin="miter">
	<path stroke='black'  d='M280.6,428.0 L280.6,419.0 M280.6,18.1 L280.6,27.1  '/>	<g transform="translate(280.6,449.9)" stroke="none" fill="black" font-family="Arial" font-size="12.00"  text-anchor="middle">
		<text><tspan font-family="Arial" > 40</tspan></text>
	</g>
</g>
<g fill="none" color="black" stroke="currentColor" stroke-width="1.00" stroke-linecap="butt" stroke-linejoin="miter">
	<path stroke='black'  d='M337.3,428.0 L337.3,419.0 M337.3,18.1 L337.3,27.1  '/>	<g transform="translate(337.3,449.9)" stroke="none" fill="black" font-family="Arial" font-size="12.00"  text-anchor="middle">
		<text><tspan font-family="Arial" > 50</tspan></text>
	</g>
</g>
<g fill="none" color="black" stroke="currentColor" stroke-width="1.00" stroke-linecap="butt" stroke-linejoin="miter">
	<path stroke='black'  d='M394.0,428.0 L394.0,419.0 M394.0,18.1 L394.0,27.1  '/>	<g transform="translate(394.0,449.9)" stroke="none" fill="black" font-family="Arial" font-size="12.00"  text-anchor="middle">
		<text><tspan font-family="Arial" > 60</tspan></text>
	</g>
</g>
<g fill="none" color="black" stroke="currentColor" stroke-width="1.00" stroke-linecap="butt" stroke-linejoin="miter">
	<path stroke='black'  d='M450.6,428.0 L450.6,419.0 M450.6,18.1 L450.6,27.1  '/>	<g transform="translate(450.6,449.9)" stroke="none" fill="black" font-family="Arial" font-size="12.00"  text-anchor="middle">
		<text><tspan font-family="Arial" > 70</tspan></text>
	</g>
</g>
<g fill="none" color="black" stroke="currentColor" stroke-width="1.00" stroke-linecap="butt" stroke-linejoin="miter">
	<path stroke='black'  d='M507.3,428.0 L507.3,419.0 M507.3,18.1 L507.3,27.1  '/>	<g transform="translate(507.3,449.9)" stroke="none" fill="black" font-family="Arial" font-size="12.00"  text-anchor="middle">
		<text><tspan font-family="Arial" > 80</tspan></text>
	</g>
</g>
<g fill="none" color="black" stroke="currentColor" stroke-width="1.00" stroke-linecap="butt" stroke-linejoin="miter">
	<path stroke='black'  d='M564.0,428.0 L564.0,419.0 M564.0,18.1 L564.0,27.1  '/>	<g transform="translate(564.0,449.9)" stroke="none" fill="black" font-family="Arial" font-size="12.00"  text-anchor="middle">
		<text><tspan font-family="Arial" > 90</tspan></text>
	</g>
</g>
<g fill="none" color="black" stroke="currentColor" stroke-width="1.00" stroke-linecap="butt" stroke-linejoin="miter">
</g>
<g fill="none" color="black" stroke="currentColor" stroke-width="1.00" stroke-linecap="butt" stroke-linejoin="miter">
	<path stroke='black'  d='M53.9,18.1 L53.9,428.0 L615.0,428.0 L615.0,18.1 L53.9,18.1 Z  '/></g>
<g fill="none" color="black" stroke="currentColor" stroke-width="1.00" stroke-linecap="butt" stroke-linejoin="miter">
</g>
	<g id="gnuplot_plot_1" ><title>pages+cached+noexternal</title>
<g fill="none" color="black" stroke="currentColor" stroke-width="1.00" stroke-linecap="butt" stroke-linejoin="miter">
	<g transform="translate(433.7,467.9)" stroke="none" fill="black" font-family="Arial" font-size="12.00"  text-anchor="end">
		<text><tspan font-family="Arial" >pages+cached+noexternal</tspan></text>
	</g>
</g>
<g fill="none" color="black" stroke="currentColor" stroke-width="1.00" stroke-linecap="butt" stroke-linejoin="miter">
	<path stroke='rgb(148,   0, 211)'  d='M442.0,464.0 L484.2,464.0 M53.9,287.4 L59.6,280.7 L65.2,273.6 L70.9,269.4 L76.6,261.4 L82.2,261.3
		L87.9,259.3 L93.6,255.7 L99.2,253.4 L104.9,248.7 L110.6,247.7 L116.2,246.1 L121.9,245.0 L127.6,241.0
		L133.2,237.9 L138.9,237.1 L144.6,235.7 L150.3,234.7 L155.9,234.1 L161.6,231.5 L167.3,226.1 L172.9,223.1
		L178.6,222.8 L184.3,222.2 L189.9,221.4 L195.6,221.3 L201.3,220.9 L206.9,220.7 L212.6,220.3 L218.3,219.0
		L223.9,217.2 L229.6,208.5 L235.3,208.1 L240.9,207.5 L246.6,204.9 L252.3,204.9 L257.9,203.9 L263.6,202.4
		L269.3,201.5 L274.9,199.1 L280.6,198.3 L286.3,197.6 L291.9,197.4 L297.6,196.9 L303.3,196.0 L308.9,195.8
		L314.6,195.8 L320.3,195.0 L325.9,192.8 L331.6,191.9 L337.3,190.0 L343.0,188.8 L348.6,187.6 L354.3,184.5
		L360.0,183.6 L365.6,182.9 L371.3,181.6 L377.0,181.2 L382.6,180.3 L388.3,177.0 L394.0,176.9 L399.6,171.5
		L405.3,169.7 L411.0,167.8 L416.6,166.0 L422.3,161.8 L428.0,160.6 L433.6,157.8 L439.3,157.8 L445.0,157.2
		L450.6,157.1 L456.3,156.0 L462.0,152.6 L467.6,150.5 L473.3,149.2 L479.0,149.1 L484.6,147.9 L490.3,145.8
		L496.0,140.9 L501.6,139.9 L507.3,136.8 L513.0,135.4 L518.6,132.0 L524.3,131.6 L530.0,131.2 L535.7,130.8
		L541.3,127.7 L547.0,127.1 L552.7,125.6 L558.3,122.0 L564.0,118.3 L569.7,118.0 L575.3,117.1 L581.0,115.1
		L586.7,106.8 L592.3,106.2 L598.0,87.7 L603.7,48.3 L609.3,46.1 L615.0,26.0  '/></g>
	</g>
	<g id="gnuplot_plot_2" ><title>pages+cached+noexternal+nofonts</title>
<g fill="none" color="black" stroke="currentColor" stroke-width="1.00" stroke-linecap="butt" stroke-linejoin="miter">
	<g transform="translate(433.7,485.9)" stroke="none" fill="black" font-family="Arial" font-size="12.00"  text-anchor="end">
		<text><tspan font-family="Arial" >pages+cached+noexternal+nofonts</tspan></text>
	</g>
</g>
<g fill="none" color="black" stroke="currentColor" stroke-width="1.00" stroke-linecap="butt" stroke-linejoin="miter">
	<path stroke='rgb(  0, 158, 115)'  d='M442.0,482.0 L484.2,482.0 M53.9,420.1 L59.6,385.5 L65.2,383.6 L70.9,382.9 L76.6,381.1 L82.2,372.4
		L87.9,371.0 L93.6,369.9 L99.2,369.6 L104.9,368.5 L110.6,366.2 L116.2,365.4 L121.9,365.0 L127.6,363.4
		L133.2,362.1 L138.9,358.9 L144.6,358.4 L150.3,353.7 L155.9,352.7 L161.6,352.0 L167.3,351.6 L172.9,350.0
		L178.6,349.8 L184.3,349.1 L189.9,348.8 L195.6,348.7 L201.3,348.1 L206.9,344.3 L212.6,344.1 L218.3,344.0
		L223.9,343.4 L229.6,343.4 L235.3,342.4 L240.9,341.5 L246.6,341.0 L252.3,338.7 L257.9,337.9 L263.6,337.5
		L269.3,337.5 L274.9,337.3 L280.6,336.7 L286.3,336.4 L291.9,335.8 L297.6,335.7 L303.3,334.0 L308.9,333.8
		L314.6,333.3 L320.3,332.3 L325.9,332.2 L331.6,331.3 L337.3,330.9 L343.0,330.0 L348.6,329.6 L354.3,328.5
		L360.0,328.2 L365.6,328.2 L371.3,327.5 L377.0,326.9 L382.6,324.8 L388.3,323.8 L394.0,323.1 L399.6,322.0
		L405.3,319.0 L411.0,318.1 L416.6,316.8 L422.3,316.0 L428.0,315.9 L433.6,314.3 L439.3,314.0 L445.0,312.8
		L450.6,311.9 L456.3,310.9 L462.0,310.7 L467.6,309.0 L473.3,308.7 L479.0,308.7 L484.6,307.9 L490.3,307.6
		L496.0,307.3 L501.6,305.9 L507.3,305.8 L513.0,305.4 L518.6,304.4 L524.3,303.9 L530.0,301.3 L535.7,301.1
		L541.3,300.7 L547.0,296.6 L552.7,291.9 L558.3,291.8 L564.0,288.5 L569.7,288.5 L575.3,287.9 L581.0,284.9
		L586.7,279.7 L592.3,273.8 L598.0,266.4 L603.7,263.6 L609.3,249.7 L615.0,245.3  '/></g>
	</g>
<g fill="none" color="#FFFFFF" stroke="rgb(  0, 158, 115)" stroke-width="2.00" stroke-linecap="butt" stroke-linejoin="miter">
</g>
<g fill="none" color="black" stroke="currentColor" stroke-width="2.00" stroke-linecap="butt" stroke-linejoin="miter">
</g>
<g fill="none" color="black" stroke="black" stroke-width="1.00" stroke-linecap="butt" stroke-linejoin="miter">
</g>
<g fill="none" color="black" stroke="currentColor" stroke-width="1.00" stroke-linecap="butt" stroke-linejoin="miter">
	<path stroke='black'  d='M53.9,18.1 L53.9,428.0 L615.0,428.0 L615.0,18.1 L53.9,18.1 Z  '/></g>
<g fill="none" color="black" stroke="currentColor" stroke-width="1.00" stroke-linecap="butt" stroke-linejoin="miter">
</g>
</g>
</svg>
